img/icons/this/caring/two.svg

<svg width="173" height="241" viewBox="0 0 173 241" fill="none" xmlns="http://www.w3.org/2000/svg">
<path opacity="0.4" d="M58.2122 202.434H145.929C154.677 202.434 161.324 204.18 165.941 207.668C170.528 211.149 172.827 215.894 172.827 221.879C172.827 227.215 171.008 231.738 167.368 235.447C163.699 239.145 158.188 241 150.809 241H27.1126C18.6984 241 12.1508 238.741 7.44634 234.219C2.75359 229.713 0.401367 224.394 0.401367 218.284C0.401367 214.375 1.91101 209.164 4.94783 202.684C7.97295 196.21 11.2731 191.118 14.8482 187.403C29.7398 172.367 43.2095 159.493 55.1871 148.763C67.1881 138.034 75.7427 130.985 80.8802 127.6C90.096 121.291 97.7378 114.936 103.811 108.564C109.938 102.204 114.595 95.6616 117.784 88.9542C120.979 82.2695 122.565 75.693 122.565 69.2814C122.565 62.3066 120.862 56.0657 117.451 50.5701C114.095 45.1353 109.27 40.6999 103.501 37.7469C97.5798 34.689 90.9669 33.1168 84.2622 33.1729C69.5872 33.1729 58.0308 39.4366 49.6342 51.9582C48.5166 53.6023 46.6325 58.0682 44.017 65.3502C41.3663 72.655 38.3997 78.2644 35.1113 82.1842C31.7877 86.1153 26.9546 88.0667 20.5767 88.0667C14.977 88.0667 10.3193 86.2689 6.63301 82.6677C2.92328 79.0723 1.08597 74.1854 1.08597 67.9672C1.08597 60.452 2.80625 52.6011 6.29363 44.4486C9.7693 36.2678 14.9419 28.8606 21.8288 22.2158C28.7509 15.5653 37.4635 10.2005 48.0485 6.11574C58.6394 2.03099 71.05 0 85.2803 0C102.425 0 117.029 2.5999 129.148 7.83953C136.931 11.2794 143.949 16.1627 149.808 22.2158C155.774 28.3473 160.486 35.5253 163.694 43.3677C166.982 51.3836 168.632 59.6782 168.632 68.2972C168.632 81.803 165.192 94.08 158.305 105.128C151.406 116.199 144.373 124.846 137.216 131.121C130.025 137.385 118.013 147.199 101.155 160.619C84.2856 174.011 72.7527 184.428 66.4567 191.818C63.7651 194.748 60.9974 198.304 58.2122 202.434Z" fill="#D2D2D2"/>
</svg>

<svg width="173" height="241" fill="none" xmlns="http://www.w3.org/2000/svg"><path opacity=".4" d="M58.212 202.434h87.717c8.748 0 15.395 1.746 20.012 5.234 4.587 3.481 6.886 8.226 6.886 14.211 0 5.336-1.819 9.859-5.459 13.568-3.669 3.698-9.18 5.553-16.559 5.553H27.113c-8.415 0-14.962-2.259-19.667-6.781-4.692-4.506-7.045-9.825-7.045-15.935 0-3.909 1.51-9.12 4.547-15.6 3.025-6.474 6.325-11.566 9.9-15.281 14.892-15.036 28.361-27.91 40.34-38.64 12-10.729 20.555-17.778 25.692-21.163 9.216-6.309 16.858-12.664 22.931-19.036 6.127-6.36 10.784-12.902 13.973-19.61 3.195-6.684 4.781-13.261 4.781-19.673 0-6.974-1.703-13.215-5.114-18.71-3.356-5.436-8.181-9.871-13.95-12.824a41.2 41.2 0 00-19.239-4.574c-14.675 0-26.231 6.264-34.628 18.785-1.117 1.644-3.002 6.11-5.617 13.392-2.65 7.305-5.617 12.914-8.906 16.834-3.323 3.931-8.156 5.883-14.534 5.883-5.6 0-10.258-1.798-13.944-5.4-3.71-3.595-5.547-8.482-5.547-14.7 0-7.515 1.72-15.366 5.208-23.518 3.475-8.181 8.648-15.588 15.535-22.233 6.922-6.65 15.635-12.016 26.22-16.1C58.638 2.03 71.05 0 85.28 0c17.145 0 31.749 2.6 43.868 7.84a65.705 65.705 0 0120.66 14.376 66.383 66.383 0 0113.886 21.152c3.288 8.016 4.938 16.31 4.938 24.93 0 13.505-3.44 25.782-10.327 36.83-6.899 11.071-13.932 19.718-21.089 25.993-7.191 6.264-19.203 16.078-36.061 29.498-16.87 13.392-28.402 23.809-34.698 31.199-2.692 2.93-5.46 6.486-8.245 10.616z" fill="#D2D2D2"/></svg>
